source/img/Inst-logo.svg

<svg width="26" height="26" viewBox="0 0 26 26" fill="none" xmlns="http://www.w3.org/2000/svg">
<path fill-rule="evenodd" clip-rule="evenodd" d="M23.3789 0H2.98877C2.3132 0.00237184 1.66618 0.271792 1.18848 0.749496C0.710772 1.2272 0.441337 1.87442 0.438965 2.54999V22.947C0.441337 23.6226 0.710772 24.2698 1.18848 24.7475C1.66618 25.2252 2.3132 25.4946 2.98877 25.497H23.3789C24.055 25.4962 24.7031 25.2273 25.1812 24.7492C25.6592 24.2712 25.9284 23.623 25.9292 22.947V2.547C25.9279 1.87138 25.6587 1.22385 25.1807 0.746399C24.7026 0.268944 24.0545 0.000528187 23.3789 0ZM13.189 7.64799C14.1976 7.64799 15.1838 7.9471 16.0225 8.50749C16.8612 9.06789 17.5149 9.86441 17.9009 10.7963C18.2869 11.7282 18.3877 12.7536 18.1909 13.743C17.9941 14.7323 17.5087 15.641 16.7954 16.3542C16.0822 17.0675 15.1734 17.5532 14.1841 17.75C13.1948 17.9468 12.1692 17.8458 11.2373 17.4598C10.3054 17.0738 9.50913 16.4201 8.94873 15.5814C8.38834 14.7427 8.08887 13.7567 8.08887 12.748C8.09098 11.396 8.62901 10.0999 9.58496 9.14374C10.5409 8.1876 11.8369 7.64937 13.189 7.64699V7.64799ZM3.62891 22.948C3.5436 22.9539 3.45804 22.9415 3.37793 22.9116C3.29782 22.8817 3.22515 22.835 3.16455 22.7747C3.10395 22.7144 3.05664 22.6418 3.02637 22.5618C2.9961 22.4818 2.98329 22.3963 2.98877 22.311V11.472H5.66895C5.56152 11.888 5.51781 12.3179 5.53906 12.747C5.53906 14.7746 6.3446 16.7191 7.77832 18.1528C9.21204 19.5865 11.1565 20.392 13.1841 20.392C15.2117 20.392 17.1561 19.5865 18.5898 18.1528C20.0236 16.7191 20.8291 14.7746 20.8291 12.747C20.8487 12.3185 20.8082 11.8893 20.709 11.472H23.3789V22.307C23.3842 22.3914 23.372 22.476 23.3423 22.5553C23.3126 22.6345 23.266 22.7066 23.2065 22.7667C23.147 22.8269 23.076 22.8738 22.9971 22.9043C22.9182 22.9349 22.8335 22.9484 22.749 22.944H3.62891V22.948ZM23.3789 5.73999C23.3842 5.82443 23.372 5.90905 23.3423 5.98828C23.3126 6.06751 23.266 6.13957 23.2065 6.19972C23.147 6.25988 23.076 6.30677 22.9971 6.33733C22.9182 6.36788 22.8335 6.3814 22.749 6.377H20.1992C20.1139 6.38287 20.0279 6.37044 19.9478 6.34055C19.8676 6.31065 19.795 6.26399 19.7344 6.20367C19.6738 6.14335 19.6269 6.07078 19.5967 5.99081C19.5664 5.91085 19.5536 5.82532 19.5591 5.73999V3.18999C19.5538 3.10474 19.5668 3.01935 19.5972 2.9395C19.6275 2.85965 19.6743 2.7872 19.7349 2.72699C19.7955 2.66678 19.8682 2.6202 19.9482 2.59036C20.0283 2.56053 20.114 2.54814 20.1992 2.554H22.749C22.8334 2.54962 22.9178 2.5631 22.9966 2.5936C23.0754 2.62409 23.1471 2.6709 23.2065 2.73094C23.266 2.79099 23.3121 2.86292 23.3418 2.94203C23.3715 3.02114 23.3841 3.10563 23.3789 3.18999V5.73999Z" fill="#37373F"/>
</svg>

<svg width="26" height="26" fill="none" xmlns="http://www.w3.org/2000/svg"><path fill-rule="evenodd" clip-rule="evenodd" d="M23.379 0H2.989a2.559 2.559 0 00-2.55 2.55v20.397a2.559 2.559 0 002.55 2.55h20.39a2.553 2.553 0 002.55-2.55v-20.4A2.552 2.552 0 0023.38 0zm-10.19 7.648a5.1 5.1 0 11-5.1 5.1 5.11 5.11 0 015.1-5.101v.001zm-9.56 15.3a.6.6 0 01-.64-.637V11.472h2.68a4.257 4.257 0 00-.13 1.275 7.645 7.645 0 0015.29 0 4.56 4.56 0 00-.12-1.275h2.67v10.835a.6.6 0 01-.63.637H3.629v.004zM23.379 5.74a.6.6 0 01-.63.637h-2.55a.602.602 0 01-.64-.637V3.19a.6.6 0 01.64-.636h2.55a.6.6 0 01.63.636v2.55z" fill="#37373F"/></svg>
